app/img/icons/ic--infared.svg

<svg xmlns="http://www.w3.org/2000/svg" preserveAspectRatio="xMidYMid" width="36.969" height="20" viewBox="0 0 36.969 20"><defs><style>.cls-1{fill:#fff;fill-rule:evenodd}</style></defs><path d="M36.119 9.797h-2.093c-.474 0-.855-.349-.855-.779 0-.432.381-.78.855-.78h2.093c.474 0 .855.348.855.78 0 .43-.381.779-.855.779zm-3.587-4.768c-.33.311-.886.311-1.227 0a.711.711 0 0 1 0-1.091l1.464-1.311a.955.955 0 0 1 1.237 0c.34.311.34.797 0 1.1l-1.474 1.302zm-5.72 9.233c-3.236 0-5.885-2.374-5.885-5.235 0-2.889 2.649-5.245 5.885-5.245 3.236 0 5.895 2.366 5.895 5.245 0 2.861-2.659 5.235-5.895 5.235zm0-10.883c-.474 0-.855-.35-.855-.78V.756c0-.422.381-.771.855-.771.484 0 .877.349.877.771v1.843c0 .43-.393.78-.877.78zm-5.71 1.65l-1.463-1.302c-.341-.303-.341-.789 0-1.1.34-.303.896-.303 1.227 0l1.473 1.311c.33.303.33.798 0 1.091a.937.937 0 0 1-1.237 0zm-.628 3.989c0 .43-.391.779-.876.779h-2.051c-.495 0-.887-.349-.887-.779 0-.432.392-.78.887-.78h2.051c.485 0 .876.348.876.78zm-3.103 7.088c.424.202.557.696.331 1.054a3.942 3.942 0 0 1-.443.569c-.166.174-.372.321-.578.477a5.165 5.165 0 0 1-.681.376c-.205.1-.452.183-.72.248l-.032.008a5.472 5.472 0 0 1-.773.111h-.021c-.257.018-.525 0-.792-.028a5.257 5.257 0 0 1-.702-.138l-.031-.018a2.852 2.852 0 0 1-.556.459 3.784 3.784 0 0 1-.681.385c-.226.1-.463.183-.72.256h-.032a5.001 5.001 0 0 1-.772.11h-.022c-.247.019-.515.01-.783-.027a3.457 3.457 0 0 1-.7-.137l-.062-.019a5.505 5.505 0 0 1-.7-.293c-.424-.211-.568-.679-.32-1.055.236-.376.772-.495 1.174-.284.134.064.268.11.423.165l.021.018a3.24 3.24 0 0 0 .835.092 2.27 2.27 0 0 0 .453-.073h.052c.144-.037.257-.092.392-.138.143-.064.257-.137.391-.22.102-.065.206-.175.309-.266.093-.11.185-.211.268-.33.226-.348.762-.486 1.175-.275l.02.009a1.7 1.7 0 0 0 .382.156l.02.009c.155.037.268.064.402.082h.011c.134.019.288.019.443.019.145-.019.299-.037.454-.073l.041-.01c.134-.027.267-.063.381-.137.154-.055.268-.128.402-.22.102-.074.227-.166.299-.257.113-.11.205-.211.268-.311.236-.377.763-.496 1.174-.294zm-4.751-2.119a5.477 5.477 0 0 1-.721.615 6.774 6.774 0 0 1-.876.476c-.278.129-.587.23-.897.313l-.041.009c-.34.082-.681.128-1.02.147-.34.018-.671 0-1.01-.028a5.04 5.04 0 0 1-.917-.202l-.042-.009-.164-.045-.114.109c-.227.22-.474.422-.721.606a5.077 5.077 0 0 1-.856.476 5.025 5.025 0 0 1-.917.312l-.041.018c-.32.074-.67.12-1.01.138a4.48 4.48 0 0 1-1-.037 5.16 5.16 0 0 1-.979-.202 4.105 4.105 0 0 1-.886-.375c-.403-.202-.557-.679-.32-1.045.237-.368.773-.496 1.195-.276.186.101.392.174.588.239.196.054.402.11.628.137.227.019.454.028.681.019.195-.01.422-.046.649-.102h.041c.206-.073.402-.127.608-.202h-.02c.227-.109.402-.21.577-.329.185-.11.33-.248.464-.385.155-.156.278-.312.381-.477.248-.367.784-.495 1.186-.284l.02.009c.186.092.381.165.567.229l.062.019c.186.064.37.1.567.119.226.027.453.027.679.018.217-.01.443-.037.67-.11h.042c.206-.046.412-.12.587-.202.206-.082.402-.183.567-.312.165-.11.329-.248.463-.394v-.009c.155-.147.3-.312.382-.468.247-.376.773-.495 1.196-.284.401.22.546.688.309 1.063-.165.257-.35.496-.557.706zm8.482-.981c.33-.293.897-.293 1.226 0 .341.312.341.808 0 1.101l-1.473 1.302c-.32.312-.876.312-1.226 0-.331-.293-.331-.77 0-1.082l1.473-1.321zm5.71 1.67c.484 0 .877.348.877.769v1.844c0 .431-.393.779-.877.779-.474 0-.855-.348-.855-.779v-1.844c0-.421.381-.769.855-.769zm5.71-1.67l1.473 1.302c.351.312.351.789 0 1.092-.329.303-.886.303-1.226.009l-1.464-1.302c-.34-.303-.34-.789 0-1.101.341-.293.897-.302 1.217 0z" class="cls-1"/></svg>

<svg xmlns="http://www.w3.org/2000/svg" xmlns:xlink="http://www.w3.org/1999/xlink" preserveAspectRatio="xMidYMid" width="36.969" height="20" viewBox="0 0 36.969 20">
  <defs>
    <style>
      .cls-1 {
        fill: #fff;
        fill-rule: evenodd;
      }
    </style>
  </defs>
  <path d="M36.119,9.797 L34.026,9.797 C33.552,9.797 33.171,9.448 33.171,9.018 C33.171,8.586 33.552,8.238 34.026,8.238 L36.119,8.238 C36.593,8.238 36.974,8.586 36.974,9.018 C36.974,9.448 36.593,9.797 36.119,9.797 ZM32.532,5.029 C32.202,5.340 31.646,5.340 31.305,5.029 C30.965,4.736 30.965,4.241 31.305,3.938 L32.769,2.627 C33.109,2.324 33.666,2.324 34.006,2.627 C34.346,2.938 34.346,3.424 34.006,3.727 L32.532,5.029 ZM26.812,14.262 C23.576,14.262 20.927,11.888 20.927,9.027 C20.927,6.138 23.576,3.782 26.812,3.782 C30.048,3.782 32.707,6.148 32.707,9.027 C32.707,11.888 30.048,14.262 26.812,14.262 ZM26.812,3.379 C26.338,3.379 25.957,3.029 25.957,2.599 L25.957,0.756 C25.957,0.334 26.338,-0.015 26.812,-0.015 C27.296,-0.015 27.689,0.334 27.689,0.756 L27.689,2.599 C27.689,3.029 27.296,3.379 26.812,3.379 ZM21.102,5.029 L19.639,3.727 C19.298,3.424 19.298,2.938 19.639,2.627 C19.979,2.324 20.535,2.324 20.866,2.627 L22.339,3.938 C22.669,4.241 22.669,4.736 22.339,5.029 C21.999,5.340 21.443,5.340 21.102,5.029 ZM20.474,9.018 C20.474,9.448 20.083,9.797 19.598,9.797 L17.547,9.797 C17.052,9.797 16.660,9.448 16.660,9.018 C16.660,8.586 17.052,8.238 17.547,8.238 L19.598,8.238 C20.083,8.238 20.474,8.586 20.474,9.018 ZM17.371,16.106 C17.795,16.308 17.928,16.802 17.702,17.160 C17.568,17.371 17.413,17.564 17.259,17.729 C17.093,17.903 16.887,18.050 16.681,18.206 C16.475,18.343 16.238,18.472 16.000,18.582 C15.795,18.682 15.548,18.765 15.280,18.830 L15.248,18.838 C15.001,18.893 14.733,18.930 14.475,18.949 L14.465,18.949 L14.454,18.949 C14.197,18.967 13.929,18.949 13.662,18.921 C13.414,18.893 13.177,18.838 12.960,18.783 L12.929,18.765 C12.765,18.930 12.600,19.086 12.373,19.224 C12.167,19.370 11.930,19.507 11.692,19.609 C11.466,19.709 11.229,19.792 10.972,19.865 L10.940,19.865 C10.693,19.921 10.436,19.957 10.168,19.975 L10.146,19.975 C9.899,19.994 9.631,19.985 9.363,19.948 C9.116,19.921 8.889,19.884 8.663,19.811 L8.601,19.792 C8.374,19.719 8.126,19.609 7.901,19.499 C7.477,19.288 7.333,18.820 7.581,18.444 C7.817,18.068 8.353,17.949 8.755,18.160 C8.889,18.224 9.023,18.270 9.178,18.325 L9.199,18.343 C9.343,18.380 9.456,18.399 9.611,18.417 C9.735,18.435 9.899,18.435 10.034,18.435 C10.189,18.426 10.353,18.399 10.487,18.362 L10.539,18.362 C10.683,18.325 10.796,18.270 10.931,18.224 C11.074,18.160 11.188,18.087 11.322,18.004 C11.424,17.939 11.528,17.829 11.631,17.738 C11.724,17.628 11.816,17.527 11.899,17.408 C12.125,17.060 12.661,16.922 13.074,17.133 L13.094,17.142 C13.208,17.206 13.342,17.262 13.476,17.298 L13.496,17.307 C13.651,17.344 13.764,17.371 13.898,17.389 L13.909,17.389 C14.043,17.408 14.197,17.408 14.352,17.408 C14.497,17.389 14.651,17.371 14.806,17.335 L14.847,17.325 C14.981,17.298 15.114,17.262 15.228,17.188 C15.382,17.133 15.496,17.060 15.630,16.968 C15.732,16.894 15.857,16.802 15.929,16.711 C16.042,16.601 16.134,16.500 16.197,16.400 C16.433,16.023 16.960,15.904 17.371,16.106 ZM12.620,13.987 C12.393,14.208 12.167,14.418 11.899,14.602 C11.631,14.767 11.342,14.941 11.023,15.078 C10.745,15.207 10.436,15.308 10.126,15.391 L10.085,15.400 C9.745,15.482 9.404,15.528 9.065,15.547 C8.725,15.565 8.394,15.547 8.055,15.519 C7.745,15.482 7.426,15.409 7.138,15.317 L7.096,15.308 L6.932,15.263 L6.818,15.372 C6.591,15.592 6.344,15.794 6.097,15.978 C5.829,16.161 5.540,16.326 5.241,16.454 C4.953,16.583 4.644,16.692 4.324,16.766 L4.283,16.784 C3.963,16.858 3.613,16.904 3.273,16.922 C2.933,16.950 2.592,16.931 2.273,16.885 C1.943,16.848 1.614,16.784 1.294,16.683 C0.995,16.601 0.686,16.463 0.408,16.308 C0.005,16.106 -0.149,15.629 0.088,15.263 C0.325,14.895 0.861,14.767 1.283,14.987 C1.469,15.088 1.675,15.161 1.871,15.226 C2.067,15.280 2.273,15.336 2.499,15.363 C2.726,15.382 2.953,15.391 3.180,15.382 C3.375,15.372 3.602,15.336 3.829,15.280 L3.870,15.280 C4.076,15.207 4.272,15.153 4.478,15.078 L4.458,15.078 C4.685,14.969 4.860,14.868 5.035,14.749 C5.220,14.639 5.365,14.501 5.499,14.364 C5.654,14.208 5.777,14.052 5.880,13.887 C6.128,13.520 6.664,13.392 7.066,13.603 L7.086,13.612 C7.272,13.704 7.467,13.777 7.653,13.841 L7.715,13.860 C7.901,13.924 8.085,13.960 8.282,13.979 C8.508,14.006 8.735,14.006 8.961,13.997 C9.178,13.987 9.404,13.960 9.631,13.887 L9.673,13.887 C9.879,13.841 10.085,13.767 10.260,13.685 C10.466,13.603 10.662,13.502 10.827,13.373 C10.992,13.263 11.156,13.125 11.290,12.979 L11.290,12.970 C11.445,12.823 11.590,12.658 11.672,12.502 C11.919,12.126 12.445,12.007 12.868,12.218 C13.269,12.438 13.414,12.906 13.177,13.281 C13.012,13.538 12.827,13.777 12.620,13.987 ZM21.102,13.006 C21.432,12.713 21.999,12.713 22.328,13.006 C22.669,13.318 22.669,13.814 22.328,14.107 L20.855,15.409 C20.535,15.721 19.979,15.721 19.629,15.409 C19.298,15.116 19.298,14.639 19.629,14.327 L21.102,13.006 ZM26.812,14.676 C27.296,14.676 27.689,15.024 27.689,15.445 L27.689,17.289 C27.689,17.720 27.296,18.068 26.812,18.068 C26.338,18.068 25.957,17.720 25.957,17.289 L25.957,15.445 C25.957,15.024 26.338,14.676 26.812,14.676 ZM32.522,13.006 L33.995,14.308 C34.346,14.620 34.346,15.097 33.995,15.400 C33.666,15.703 33.109,15.703 32.769,15.409 L31.305,14.107 C30.965,13.804 30.965,13.318 31.305,13.006 C31.646,12.713 32.202,12.704 32.522,13.006 Z" class="cls-1"/>
</svg>
